!!!!SEGMENT: pl-wn--sd-xvi-o-274_waclaw-z-szamotul--kancjonal-zamoyskich-psalm-dawidow-cxvi-laudate-dominum-alleluia-chwalcie-pana-boga.krn
!!!cenid: 15xx:829
!!!COM: Wacław z Szamotuł
!!!COM-rismID: pe30014770
!!!CDT: ~1520-~1560
!!!CNT:
!!!GTL: Kancjonał Zamoyskich
!!!OTL: Psalm Dawidów CXVI Laudate Dominum/Alleluia, Chwalcie pana Boga
!!!PDT: 1558
!!!AGN:
!!!SMS-siglum: PL-Wn
!!!SMS-shelfmark: SD XVI.O.274
!!!SMS-shelfwork: G
!!!SMS-variant:
!!!SMS-altvar:
!!!NIFC-rismSourceID: 990063542
!!!NIFC-rismChildID: 990063542
!!!NIFC-islandoraID: none
!!!URL-pdf-islandora:
!!!URL-scan: https://polona.pl/item/psalm-dawidow-c-xvi-laudate-dominum-omnes-gentes-etc,Mzc1MTUyNg/3 @EN{Scan on Polona} @PL{Skany w portalu Polona}
!!!IIIF: https://polona.pl/iiif/item/Mzc1MTUyNg/manifest.json
!!!ONB-nifc: UWAGA: proszę zapisywać tylko teksty występujące bezpośrednio pod nutami
!!!AIN: 1 alto 1 bass 1 soprn 1 tenor
!!!key: d:dor
**kern	**text	**mod-text	**kern	**text	**mod-text	**kern	**text	**mod-text	**kern	**text	**mod-text
*part4	*part4	*part1	*part3	*part3	*part1	*part2	*part2	*part1	*part1	*part1	*part1
*staff4	*staff4	*staff1	*staff3	*staff3	*staff1	*staff2	*staff2	*staff1	*staff1	*staff1	*staff1
*I"BASS.	*	*	*I"TENOR.	*	*	*I"ALT.	*	*	*I"CANTVS	*	*
*mI"Basso	*	*	*mI"Tenore	*	*	*mI"Alto	*	*	*mI"Soprano	*	*
*Ibass	*	*	*Itenor	*	*	*Ialto	*	*	*Isoprn	*	*
*ICvox	*	*	*ICvox	*	*	*ICvox	*	*	*ICvox	*	*
*clefF4	*	*	*clefC4	*	*	*clefC3	*	*	*clefC1	*	*
*	*	*	*mclefGv2	*	*	*mclefG2	*	*	*mclefG2	*	*
*k[]	*	*	*k[]	*	*	*k[]	*	*	*k[]	*	*
*d:dor	*	*	*d:dor	*	*	*d:dor	*	*	*d:dor	*	*
*M2/1	*	*	*M2/1	*	*	*M2/1	*	*	*M2/1	*	*
*met(C|)	*	*	*met(C|)	*	*	*met(C|)	*	*	*met(C|)	*	*
*mmet(c|)	*	*	*mmet(c|)	*	*	*mmet(c|)	*	*	*mmet(c|)	*	*
=1-	=1-	=1-	=1-	=1-	=1-	=1-	=1-	=1-	=1-	=1-	=1-
*xywh-#6:2856,245,2180,865	*	*	*xywh-#6:832,326,1973,807	*	*	*xywh-#5:2924,271,2140,923	*	*	*xywh-#5:966,409,1938,859	*	*
2F\	Al-	Al-	2F/	Al-	Al-	2c/	Al-	Al-	2f/	Al-	Al-
2C/	-le.-	-le-	2G/	-le.-	-le-	2c/	-le.-	-le-	2e/	-le-	-le-
1F	-[lu]-	-lu-	1A	-[lu]-	-lu-	1A	-[lu]-	-lu-	1c	-lu-	-lu-
=2-	=2-	=2-	=2-	=2-	=2-	=2-	=2-	=2-	=2-	=2-	=2-
1D	-[ia]	-ja.	1A	-[ia]	-ja.	1d	-[ia]	-ja.	1f	-ia.	-ja.
2D/	Chwal-	Chwal-	2A/	Chwal-	Chwal-	2d/	Chwal-	Chwal-	2f/	Chwal-	Chwal-
2C/	c̄ie	-cie	2c\	-c̄ie	-cie	2e\	-c̄ie	-cie	2e/	-c̄ie	-cie
=3-	=3-	=3-	=3-	=3-	=3-	=3-	=3-	=3-	=3-	=3-	=3-
2D/	pá-	Pa-	2A/	Pá-	Pa-	2f\	Pá.-	Pa-	2d/	pá-	Pa-
2AA/	-ná	-na	2c\	-ná	-na	2e\	-[ná]	-na	2e/	-ná	-na
1D	Bo·-	Bo-	1A	Bo·-	Bo-	1d	Bo-	Bo-	1f	Bo-	Bo-
=4-	=4-	=4-	=4-	=4-	=4-	=4-	=4-	=4-	=4-	=4-	=4-
2AA/	[gá]	-ga	2A/	[gá]	-ga	1c	g.[á]	-ga	1e	-gá	-ga
1A\	wſſech-	wszech-	1c\	wſſech-	wszech-	.	.	.	.	.	.
.	.	.	.	.	.	2e\	wſſech-	wszech-	2e/	wſſech-	wszech-
2D/	-moc·-	-mo-	2d\	-mo.-	-mo-	2f\	-mo.-	-mo-	1a\	chmo.-	-mo-
=5-	=5-	=5-	=5-	=5-	=5-	=5-	=5-	=5-	=5-	=5-	=5-
1E	-[ne]-	-cne-	1B	-[cne]-	-cne-	1e	-[cne]-	-cne-	.	.	.
!	!	!	!	!	!	!	!	!	!LO:SIC:s=2g#i	!	!
.	.	.	.	.	.	.	.	.	2g/	[cne]-	-cne-
1AA	-[go]	-go	1A	-[go]	-go	1c	-[go]	-go	1a	-[go]	-go
*custos:A	*	*	*custos:A	*	*	*custos:e	*	*	*custos:a	*	*
!!LO:LB:g=original
=6-	=6-	=6-	=6-	=6-	=6-	=6-	=6-	=6-	=6-	=6-	=6-
*xywh-#6:2856,1070,1950,594	*	*	*xywh-#6:942,1110,1863,548	*	*	*xywh-#5:2924,1131,1892,594	*	*	*xywh-#5:1081,1217,1846,565	*	*
2A\	Na-	na-	2A/	Na-	na-	2e\	Na-	na-	2a\	na-	na-
2F\	-ro-	-ro-	2c\	-ro-	-ro-	2f\	-ro-	-ro-	2a\	-ro-	-ro-
2G\	-do-	-do-	2B\	-do-	-do-	2d/	-do-	-do-	2g/	-do-	-do-
2D/	-wie	-wie	2A/	-wie	-wie	2d/	-wie	-wie	2f/	-wie	-wie
=7-	=7-	=7-	=7-	=7-	=7-	=7-	=7-	=7-	=7-	=7-	=7-
1F	wſſyt-	wszyt-	1A	wſſyt-	wszyt-	1c	wſſyt-	wszyt-	1f	wſſyt-	wszyt-
2F\	-ci	-cy	2F/	-ci	-cy	2c/	-ci	-cy	2f/	-ci	-cy
1C/	ſwiá-	świa-	1G/	ſwiá-	świa-	1c\	ſwiá-	świa-	2.e/	ſwiá-	świa-
.	.	.	.	.	.	.	.	.	.	.	.
=8-	=8-	=8-	=8-	=8-	=8-	=8-	=8-	=8-	=8-	=8-	=8-
.	.	.	.	.	.	.	.	.	.	.	.
.	.	.	.	.	.	.	.	.	4d/	-tá	-ta
2D/	-tá	-ta	2F/	-ta	-ta	2A/	-tá	-ta	1d/	te-	te-
1AA	te-	te-	1E	te-	te-	1A	te-	te-	.	.	.
!	!	!	!	!	!	!	!	!	!LO:SIC:s=2c#i	!	!
.	.	.	.	.	.	.	.	.	2c/	.	.
=9-	=9-	=9-	=9-	=9-	=9-	=9-	=9-	=9-	=9-	=9-	=9-
1D	-go/	-go	1D	-go.	-go	1A	-go.	-go	1d	-go.	-go
*custos:D	*	*	*custos:D	*	*	*custos:A	*	*	*custos:f	*	*
!!LO:LB:g=original
*xywh-#6:2862,1624,1961,542	*	*	*xywh-#6:925,1629,1880,571	*	*	*xywh-#5:2930,1679,1898,576	*	*	*xywh-#5:1093,1759,1834,571	*	*
2D/	A	a	2D/	A	a	2A/	A	a	2f/	A	a
2C/	wiel-	wiel-	2G/	wiel-	wiel-	2c/	wiel-	wiel-	2e/	wiel-	wiel-
=10-	=10-	=10-	=10-	=10-	=10-	=10-	=10-	=10-	=10-	=10-	=10-
2GG/	-bi-	-bi-	2G/	-bi-	-bi-	2B/	-bi-	-bi-	2d/	-bi-	-bi-
2D/	c̄ie	-cie	2F/	c̄ie	-cie	2A/	-c̄ie	-cie	2f/	-c̄ie	-cie
4C/	ſwię-	świę-	1G	y-	świę-	1c	ſwię-	świę-	1e	ſwię-	świę-
4D/	.	.	.	.	.	.	.	.	.	.	.
4E\	.	.	.	.	.	.	.	.	.	.	.
4F\	.	.	.	.	.	.	.	.	.	.	.
=11-	=11-	=11-	=11-	=11-	=11-	=11-	=11-	=11-	=11-	=11-	=11-
2G\	-te	-te	2E/	-mię	-te	2B/	-te	-te	2e/	-te	-te
1D\	y-	i-	1F/	ſwię-	i-	2.d\	y-	i-	1a\	y-	i-
.	.	.	.	.	.	4c/	-mię	.	.	.	.
2E\	-mię	-mię	2E/	-te	-mię	1c\	ie-	-mię	2g/	-mię	-mię
=12-	=12-	=12-	=12-	=12-	=12-	=12-	=12-	=12-	=12-	=12-	=12-
1F	ie-	Je-	1D	ie-	Je-	.	.	.	1f	ie-	Je-
.	.	.	.	.	.	2B/	.	Je-	.	.	.
!	!	!	!LO:SIC:v:s=1C	!	!	!	!	!	!	!	!
1G	-go/	-go	1BB	-go/	-go	1c	-go.	-go	1e	-go.	-go
*custos:C	*	*	*custos:E	*	*	*custos:c	*	*	*custos:e	*	*
!!LO:LB:g=original
=13-	=13-	=13-	=13-	=13-	=13-	=13-	=13-	=13-	=13-	=13-	=13-
*xywh-#6:2879,2141,1875,611	*	*	*xywh-#6:886,2167,1909,571	*	*	*xywh-#5:2928,2213,1938,594	*	*	*xywh-#5:1041,2320,1886,542	*	*
2C/	Lu-	lu-	2G/	Lu-	lu-	2c/	Lu-	lu-	2e/	Lu-	lu-
2C/	dʒ́ie	-dzie	2c\	dʒ́ie	-dzie	2e\	-dʒ́ie	-dzie	2g/	-dʒ́ie	-dzie
2AA/	wſſyt-	wszyt-	2c\	wſſyt-	wszyt-	2e\	wſſyt-	wszyt-	2a\	wſſyſ-	wszyt-
2D/	-ci	-cy	2A/	-ci	-cy	1d\	-ci	-cy	2f/	-ci	-cy
=14-	=14-	=14-	=14-	=14-	=14-	=14-	=14-	=14-	=14-	=14-	=14-
1AA	ſta-	sta-	1A	ſta-	sta-	.	.	.	1e	ſta-	sta-
.	.	.	.	.	.	2c/	ſta-	sta-	.	.	.
2D\	-nu	-nu	2F/	-nu	-nu	2d\	-nu	-nu	2f/	-nu	-nu
2E\	wſſe-	wsze-	1G/	wſſe-	wsze-	2B/	wſſe-	wsze-	2.e/	wſſe-	wsze-
=15-	=15-	=15-	=15-	=15-	=15-	=15-	=15-	=15-	=15-	=15-	=15-
2C/	.	.	.	.	.	2c/	-lá-	-la-	.	.	.
.	.	.	.	.	.	.	.	.	4d/	-l[á]-	-la-
2D/	lá-	-la-	2F/	-la-	-la-	1.A/	-kie-	-kie-	1d/	-kie-	-kie-
1AA	-kie-	-kie-	1E	-kie-	-kie-	.	.	.	.	.	.
!	!	!	!	!	!	!	!	!	!LO:SIC:s=2c#i	!	!
.	.	.	.	.	.	.	.	.	2c/	.	.
=16-	=16-	=16-	=16-	=16-	=16-	=16-	=16-	=16-	=16-	=16-	=16-
1D	-go.	-go.	1D	-go/	-go.	1A	-go.	-go.	1d	-go.	-go.
*custos:C	*	*	*custos:G	*	*	*custos:c	*	*	*custos:e	*	*
!!LO:LB:g=original
*xywh-#6:2879,2701,1892,825	*	*	*xywh-#6:881,2704,1909,600	*	*	*xywh-#5:2911,2779,1978,669	*	*	*xywh-#5:1035,2829,1880,576	*	*
1C	.	Al-	1G	.	Al-	1c	.	Al-	1e	Al-	Al-
=17-	=17-	=17-	=17-	=17-	=17-	=17-	=17-	=17-	=17-	=17-	=17-
2D/	Al-	.	2F/	Al-	.	1A	Al-	.	2d/	-le-	.
1F\	-le-	.	1A\	-le-	.	.	.	.	1c/	-lu-	.
.	.	.	.	.	.	4F/	-le-	.	.	.	.
.	.	.	.	.	.	4G/	-lu-	.	.	.	.
4E\	-lu-	.	4G/	-lu-	.	4A/	-ia.	.	2d/	-ia.	.
4D\	-ia.	.	4F/	-ia.	.	4B/	.	.	.	.	.
=18-	=18-	=18-	=18-	=18-	=18-	=18-	=18-	=18-	=18-	=18-	=18-
2C/	.	.	2G\	.	.	2c/	.	.	2e/	.	-le-
2D/	-le-	-le-	2F/	.	-le-	2B/	.	-le-	1d/	.	-lu-
1AA	-lu-	-le-	1E	.	-lu-	1A	.	-lu-	.	.	.
!	!	!	!	!	!	!	!	!	!LO:SIC:s=2c#i	!	!
.	.	.	.	.	.	.	.	.	2c/	.	.
=19-	=19-	=19-	=19-	=19-	=19-	=19-	=19-	=19-	=19-	=19-	=19-
!LO:SIC:s=0D;	!	!	!LO:SIC:s=0D;	!	!	!LO:SIC:s=0A;	!	!	!LO:SIC:s=0d;	!	!
!LO:TX:b:t=VS.:mod=	!	!	!	!	!	!LO:TX:b:t=V.S.:mod=	!	!	!	!	!
0D/l	-ia.	-ja.	0Dl	.	-ja.	0Al	.	-ja.	0dl	.	-ja.
==	==	==	==	==	==	==	==	==	==	==	==
*-	*-	*-	*-	*-	*-	*-	*-	*-	*-	*-	*-
!!!system-decoration: [(*)]
!!LO:MO:ori
!!!RDF**kern: l = terminal long
!!LO:MO:mod
!! !!!RDF**kern: i = editorial accidental
!!LO:MO:end
!!!filter-modern: shed -e "s/TX(.*):t=P:/tx$1:t=P:/LG" | shed -e "s/^custos:/Xcustos:/I" | sic -sq | modori -m | autostem -r | tie -s | humtr -p | shed -e "s/-//B"
!!!ENC: Marta Opryszak
!!!END: 2022-05-16
!!!ENC: Marta Lawrence
!!!END: 2022-05-29
!!!ENC-modern: Andrzej Kubiczek
!!!END-modern: 2022-07-25
!!!ENC-iiif: Emilia Ziętek
!!!END-iiif: 2022-09-03
!!!YEC: Copyright 2022 Narodowy Instytut Fryderyka Chopina (https://polishscores.org)
!!!YEM: License CC-BY-4.0 (https://creativecommons.org/licenses/by/4.0)
